categories/symbolic/network-wireless-hotspot-symbolic.svg

<?xml version="1.0" encoding="UTF-8" standalone="no"?>
<svg
   xmlns:osb="http://www.openswatchbook.org/uri/2009/osb"
   xmlns:dc="http://purl.org/dc/elements/1.1/"
   xmlns:cc="http://creativecommons.org/ns#"
   xmlns:rdf="http://www.w3.org/1999/02/22-rdf-syntax-ns#"
   xmlns:svg="http://www.w3.org/2000/svg"
   xmlns="http://www.w3.org/2000/svg"
   width="16"
   height="16"
   viewBox="0 0 16 16"
   id="svg4351"
   version="1.1">
  <defs
     id="defs4353">
    <linearGradient
       osb:paint="solid"
       id="linearGradient4526">
      <stop
         id="stop4528"
         offset="0"
         style="stop-color:#ffffff;stop-opacity:1;" />
    </linearGradient>
  </defs>
  <metadata
     id="metadata4356">
    <rdf:RDF>
      <cc:Work
         rdf:about="">
        <dc:format>image/svg+xml</dc:format>
        <dc:type
           rdf:resource="http://purl.org/dc/dcmitype/StillImage" />
        <dc:title />
      </cc:Work>
    </rdf:RDF>
  </metadata>
  <g
     id="layer1"
     transform="translate(0,-1036.3622)">
    <path
       style="color:#bebebe;clip-rule:nonzero;display:inline;overflow:visible;visibility:visible;opacity:1;isolation:auto;mix-blend-mode:normal;color-interpolation:sRGB;color-interpolation-filters:linearRGB;solid-color:#000000;solid-opacity:1;fill:#bebebe;fill-opacity:1;fill-rule:nonzero;stroke:none;stroke-width:1;stroke-linecap:butt;stroke-linejoin:miter;stroke-miterlimit:4;stroke-dasharray:none;stroke-dashoffset:0;stroke-opacity:1;marker:none;color-rendering:auto;image-rendering:auto;shape-rendering:auto;text-rendering:auto;enable-background:accumulate;filter-blend-mode:normal;filter-gaussianBlur-deviation:0"
       d="M 4.6640625 4 C 3.0501676 4 1.75 5.3001676 1.75 6.9140625 L 1.75 7.0859375 C 1.75 8.2907071 2.4749628 9.3189098 3.5136719 9.7636719 C 3.5281555 9.3937014 3.5994492 9.0405771 3.7109375 8.703125 C 3.1363872 8.3524943 2.75 7.7250853 2.75 7 C 2.75 5.892 3.642 5 4.75 5 L 8.5 5 C 9.608 5 10.5 5.892 10.5 7 C 10.5 8.108 9.608 9 8.5 9 L 8.0507812 9 A 1.0021209 1.0021209 0 0 1 7.9804688 9.0019531 L 7.5 9.0019531 C 6.9297873 9.0019531 6.5019531 9.4297873 6.5019531 10 L 8.5859375 10 C 10.199832 10 11.5 8.6998324 11.5 7.0859375 L 11.5 6.9140625 C 11.5 5.3001676 10.199832 4 8.5859375 4 L 4.6640625 4 z M 7.4140625 7 C 5.8001676 7 4.5 8.3001625 4.5 9.9140625 L 4.5 10.085938 C 4.5 11.699837 5.8001676 13 7.4140625 13 L 11.335938 13 C 12.949832 13 14.25 11.699838 14.25 10.085938 L 14.25 9.9140625 C 14.25 8.7077221 13.523299 7.6782 12.482422 7.234375 C 12.468079 7.6044932 12.396708 7.9573407 12.285156 8.2949219 C 12.861779 8.6450887 13.25 9.2733495 13.25 10 C 13.25 11.108 12.358 12 11.25 12 L 7.5 12 C 6.392 12 5.5 11.108 5.5 10 C 5.5 8.892 6.392 8 7.5 8 L 8.5097656 8 C 9.0771651 7.9947737 9.5019531 7.5691596 9.5019531 7 L 7.4140625 7 z "
       transform="translate(0,1036.3622)"
       id="rect3437" />
  </g>
</svg>

<svg xmlns="http://www.w3.org/2000/svg" viewBox="0 0 16 16"><path style="isolation:auto;mix-blend-mode:normal;filter-blend-mode:normal;filter-gaussianBlur-deviation:0" d="M4.664 4A2.908 2.908 0 0 0 1.75 6.914v.172c0 1.205.725 2.233 1.764 2.678.014-.37.085-.723.197-1.06A1.996 1.996 0 0 1 4.75 5H8.5c1.108 0 2 .892 2 2s-.892 2-2 2h-.45a1.002 1.002 0 0 1-.07.002H7.5a.975.975 0 0 0-.998.998h2.084C10.2 10 11.5 8.7 11.5 7.086v-.172C11.5 5.3 10.2 4 8.586 4H4.664zm2.75 3A2.908 2.908 0 0 0 4.5 9.914v.172C4.5 11.7 5.8 13 7.414 13h3.922c1.614 0 2.914-1.3 2.914-2.914v-.172a2.907 2.907 0 0 0-1.768-2.68 3.84 3.84 0 0 1-.197 1.06A1.996 1.996 0 0 1 11.25 12H7.5c-1.108 0-2-.892-2-2s.892-2 2-2h1.01a.977.977 0 0 0 .992-1H7.414z" color="#bebebe" overflow="visible" fill="#bebebe"/></svg>
